X:1
T:Vencendo vem Jesus
T:Vencendo vem Jesus
T:Minha versão
L:1/8
Q:1/4=80
M:4/4
K:C
V:1 treble nm="Piano" snm="Pno."
V:1
 EEE ^F2 ED^C | EAB^c ccBA | z4 A^G^FF | ^F^GAG AFEF | E^C E2 z2 EE | E^FED ^CEAB | ^cccB A z3 | %7
 z A B2 B2 A2 | ^G2 A6 | E4 D_D !Refrão!E2 | AB ^c4 BA- | A z z2 ^F4 | ^GAGA ^FEFE | %13
 ^C E2 z z2 z E | E2 D_D E2 AB | ^c4 B A3 | A4 B2 B2 | A2 ^G2 A4 :| %18

